X: 111
T: Cackling of the Hens
M:4/4
L:1/4
S: 8: MCJLSH3 http://www.cpartington.plus.com/links/Walsh.abc
Z: Pete Stewart 2004
N: bar 16 as printe
B: Walsh "Third Book of the most Celebrated jiggs, Lancashire hornpipes, ..."
K:D
dAd/e/f/g/ | ag/f/ e/f/d/e/ | A>A d/c/d/e/ | f/g/f/g/ a>a | (a2a/)g/f/a/ | g/f/e/g/ f/e/d/e/ | A2d/c/d/e/ | f/a/g/f/e2 | d4 ||
dddd/d/ | f>a dd | dddd/d/ | f>a dd/d/ | f>a d/e/f/g/ | f>a dd | b<gdd/d/ | f>a dd/d/ |
b>g dd/d/ | f>a dd/d/ | a2a/g/f/a/ | g/f/e/g/ f/e/d/e/ | A>A dd/e/ | f/a/g/f/e2 | d4 ||

%%sep 1 1 500
%%sep 1 1 500
